clipboard-flow-outline.svg

<svg fill="currentColor" viewBox="0 0 24 24"><path d="M19 3h-4.18C14.4 1.84 13.3 1 12 1s-2.4.84-2.82 2H5c-1.1 0-2 .9-2 2v14a2 2 0 0 0 2 2h14c1.11 0 2-.89 2-2V5a2 2 0 0 0-2-2m-7 0c.55 0 1 .45 1 1s-.45 1-1 1-1-.45-1-1 .45-1 1-1M7 7h10V5h2v14H5V5h2zm3 9H8v-5H6l3-3 3 3h-2zm4-6h2v5h2l-3 3-3-3h2z"/></svg>

<svg  viewBox="0 0 24 24" fill="currentColor"><path  d="M19 3H14.82C14.4 1.84 13.3 1 12 1S9.6 1.84 9.18 3H5C3.9 3 3 3.9 3 5V19C3 20.11 3.9 21 5 21H19C20.11 21 21 20.11 21 19V5C21 3.9 20.11 3 19 3M12 3C12.55 3 13 3.45 13 4S12.55 5 12 5 11 4.55 11 4 11.45 3 12 3M7 7H17V5H19V19H5V5H7V7M10 16H8V11H6L9 8L12 11H10V16M14 10H16V15H18L15 18L12 15H14V10Z"/></svg>
